;FLAVOR:RepRap
;TIME:1925
;Filament used: 1.25165m
;Layer height: 0.1
;MINX:84.562
;MINY:84.559
;MINZ:0.3
;MAXX:115.441
;MAXY:115.439
;MAXZ:15
;Generated with Cura_SteamEngine 4.4.0
T0
M190 S60
M104 S190
M109 S190
M82 ;absolute extrusion mode
G28   ; Home
G1 Z15.0 F6000 ;Move the platform down 15mm
;Prime the extruder
G92 E0
G1 F200 E3
G92 E0
M83 ;relative extrusion mode
G1 F1500 E-6.5
;LAYER_COUNT:148
;LAYER:0
M107
M204 T1000
G0 F1800 X89.255 Y88.912 Z0.3
M204 P325
;TYPE:SKIRT
G1 F1500 E6.5
G1 F900 X89.395 Y88.776 E0.01169
G1 X89.676 Y88.518 E0.02284
G1 X89.779 Y88.427 E0.00823
G1 X90.057 Y88.188 E0.02195
G1 X90.181 Y88.086 E0.00961
G1 X90.64 Y87.721 E0.03511
G1 X90.794 Y87.604 E0.01158
G1 X91.05 Y87.419 E0.01891
G1 X91.128 Y87.364 E0.00571
G1 X91.388 Y87.185 E0.0189
G1 X91.498 Y87.111 E0.00794
G1 X91.879 Y86.866 E0.02712
G1 X92.057 Y86.758 E0.01246
G1 X92.403 Y86.559 E0.0239
G1 X92.513 Y86.498 E0.00753
G1 X92.888 Y86.297 E0.02547
G1 X92.998 Y86.24 E0.00742
G1 X93.325 Y86.077 E0.02187
G1 X93.492 Y85.998 E0.01106
G1 X93.926 Y85.805 E0.02844
G1 X94.049 Y85.753 E0.00799
G1 X94.351 Y85.63 E0.01952
G1 X94.493 Y85.575 E0.00912
G1 X94.854 Y85.443 E0.02301
G1 X95.013 Y85.389 E0.01005
G1 X95.605 Y85.199 E0.03722
G1 X95.838 Y85.131 E0.01453
G1 X96.388 Y84.989 E0.03401
G1 X96.512 Y84.959 E0.00764
G1 X96.773 Y84.9 E0.01602
G1 X96.915 Y84.871 E0.00868
G1 X97.278 Y84.802 E0.02212
G1 X97.395 Y84.781 E0.00712
G1 X97.594 Y84.749 E0.01207
G1 X97.684 Y84.736 E0.00544
G1 X98.153 Y84.671 E0.02835
G1 X98.358 Y84.648 E0.01235
G1 X98.83 Y84.606 E0.02837
G1 X98.976 Y84.595 E0.00877
G1 X99.31 Y84.577 E0.02003
G1 X99.417 Y84.573 E0.00641
G1 X99.877 Y84.56 E0.02755
G1 X100.09 Y84.559 E0.01275
G1 X100.49 Y84.568 E0.02395
G1 X100.62 Y84.573 E0.00779
G1 X101.032 Y84.595 E0.0247
G1 X101.155 Y84.603 E0.00738
G1 X101.493 Y84.631 E0.0203
G1 X101.681 Y84.651 E0.01132
G1 X102.265 Y84.726 E0.03525
G1 X102.489 Y84.761 E0.01357
G1 X103.039 Y84.862 E0.03348
G1 X103.182 Y84.891 E0.00874
G1 X103.473 Y84.955 E0.01784
G1 X103.6 Y84.985 E0.00781
G1 X103.984 Y85.082 E0.02371
G1 X104.181 Y85.137 E0.01225
G1 X104.846 Y85.34 E0.04163
G1 X105.054 Y85.41 E0.01314
G1 X105.42 Y85.543 E0.02331
G1 X105.558 Y85.595 E0.00883
G1 X105.942 Y85.75 E0.02479
G1 X106.056 Y85.798 E0.00741
G1 X106.437 Y85.965 E0.0249
G1 X106.611 Y86.046 E0.01149
G1 X107.024 Y86.25 E0.02758
G1 X107.149 Y86.315 E0.00843
G1 X107.41 Y86.455 E0.01773
G1 X107.513 Y86.512 E0.00705
G1 X107.93 Y86.751 E0.02877
G1 X108.102 Y86.855 E0.01203
G1 X108.456 Y87.081 E0.02514
G1 X108.57 Y87.156 E0.00817
G1 X108.859 Y87.354 E0.02097
G1 X108.958 Y87.424 E0.00726
G1 X109.282 Y87.66 E0.024
G1 X109.44 Y87.781 E0.01191
G1 X109.883 Y88.137 E0.03402
G1 X110.049 Y88.278 E0.01304
G1 X110.505 Y88.685 E0.03659
G1 X110.618 Y88.79 E0.00923
G1 X110.772 Y88.938 E0.01279
G1 X110.849 Y89.013 E0.00644
G1 X111.113 Y89.28 E0.02248
G1 X111.187 Y89.358 E0.00644
G1 X111.357 Y89.539 E0.01487
G1 X111.447 Y89.637 E0.00797
G1 X111.685 Y89.907 E0.02155
G1 X111.757 Y89.99 E0.00658
G1 X111.925 Y90.191 E0.01568
G1 X111.999 Y90.283 E0.00707
G1 X112.246 Y90.596 E0.02387
G1 X112.359 Y90.745 E0.0112
G1 X112.687 Y91.201 E0.03363
G1 X112.774 Y91.328 E0.00922
G1 X112.907 Y91.528 E0.01438
G1 X112.97 Y91.626 E0.00697
G1 X113.226 Y92.035 E0.02889
G1 X113.327 Y92.205 E0.01184
G1 X113.553 Y92.607 E0.02761
G1 X113.621 Y92.733 E0.00857
G1 X113.792 Y93.063 E0.02225
G1 X113.843 Y93.165 E0.00683
G1 X113.996 Y93.481 E0.02102
G1 X114.075 Y93.653 E0.01133
G1 X114.277 Y94.123 E0.03063
G1 X114.332 Y94.258 E0.00873
G1 X114.446 Y94.551 E0.01882
G1 X114.491 Y94.673 E0.00778
G1 X114.629 Y95.063 E0.02477
G1 X114.689 Y95.245 E0.01147
G1 X114.837 Y95.733 E0.03053
G1 X114.878 Y95.877 E0.00896
G1 X114.959 Y96.183 E0.01895
G1 X114.993 Y96.32 E0.00845
G1 X115.124 Y96.892 E0.03513
G1 X115.173 Y97.143 E0.01531
G1 X115.269 Y97.722 E0.03514
G1 X115.294 Y97.889 E0.01011
G1 X115.349 Y98.33 E0.02661
G1 X115.369 Y98.534 E0.01227
G1 X115.413 Y99.118 E0.03506
G1 X115.421 Y99.249 E0.00786
G1 X115.431 Y99.476 E0.0136
G1 X115.435 Y99.604 E0.00767
G1 X115.441 Y100.043 E0.02628
G1 X115.439 Y100.244 E0.01203
G1 X115.422 Y100.739 E0.02965
G1 X115.415 Y100.874 E0.00809
G1 X115.393 Y101.205 E0.01986
G1 X115.383 Y101.322 E0.00703
G1 X115.35 Y101.67 E0.02093
G1 X115.328 Y101.857 E0.01127
G1 X115.25 Y102.413 E0.03361
G1 X115.225 Y102.573 E0.0097
G1 X115.177 Y102.84 E0.01624
G1 X115.156 Y102.949 E0.00665
G1 X115.069 Y103.369 E0.02568
G1 X115.022 Y103.568 E0.01224
G1 X114.869 Y104.16 E0.03661
G1 X114.811 Y104.365 E0.01275
G1 X114.653 Y104.869 E0.03162
G1 X114.604 Y105.015 E0.00922
G1 X114.507 Y105.289 E0.0174
G1 X114.464 Y105.405 E0.00741
G1 X114.333 Y105.743 E0.0217
G1 X114.284 Y105.864 E0.00782
G1 X114.184 Y106.1 E0.01534
G1 X114.148 Y106.182 E0.00536
G1 X113.989 Y106.536 E0.02323
G1 X113.908 Y106.706 E0.01127
G1 X113.678 Y107.162 E0.03058
G1 X113.605 Y107.3 E0.00935
G1 X113.445 Y107.59 E0.01983
G1 X113.383 Y107.699 E0.00751
G1 X113.144 Y108.103 E0.0281
G1 X113.033 Y108.28 E0.01251
G1 X112.78 Y108.663 E0.02748
G1 X112.71 Y108.766 E0.00746
G1 X112.529 Y109.023 E0.01882
G1 X112.455 Y109.125 E0.00754
G1 X112.236 Y109.417 E0.02185
G1 X112.117 Y109.568 E0.01151
G1 X111.723 Y110.046 E0.03709
G1 X111.627 Y110.158 E0.00883
G1 X111.481 Y110.323 E0.01319
G1 X111.404 Y110.408 E0.00687
G1 X111.103 Y110.73 E0.02639
G1 X110.961 Y110.875 E0.01215
G1 X110.616 Y111.21 E0.02879
G1 X110.525 Y111.296 E0.0075
G1 X110.267 Y111.532 E0.02093
G1 X110.14 Y111.644 E0.01014
G1 X109.725 Y111.994 E0.0325
G1 X109.564 Y112.123 E0.01235
G1 X109.223 Y112.383 E0.02567
G1 X109.079 Y112.487 E0.01063
G1 X108.639 Y112.794 E0.03212
G1 X108.526 Y112.871 E0.00819
G1 X108.26 Y113.044 E0.019
G1 X108.147 Y113.115 E0.00799
G1 X107.789 Y113.332 E0.02506
G1 X107.629 Y113.424 E0.01105
G1 X107.24 Y113.637 E0.02655
G1 X107.101 Y113.71 E0.0094
G1 X106.763 Y113.879 E0.02262
G1 X106.658 Y113.929 E0.00696
G1 X106.278 Y114.106 E0.0251
G1 X106.091 Y114.188 E0.01222
G1 X105.657 Y114.365 E0.02806
G1 X105.535 Y114.413 E0.00785
G1 X105.223 Y114.529 E0.01993
G1 X105.105 Y114.57 E0.00748
G1 X104.709 Y114.704 E0.02503
G1 X104.514 Y114.765 E0.01223
G1 X103.991 Y114.914 E0.03256
G1 X103.873 Y114.946 E0.00732
G1 X103.672 Y114.997 E0.01241
G1 X103.556 Y115.025 E0.00714
G1 X103.185 Y115.108 E0.02276
G1 X103.063 Y115.133 E0.00746
G1 X102.814 Y115.181 E0.01518
G1 X102.697 Y115.202 E0.00712
G1 X102.251 Y115.275 E0.02706
G1 X102.055 Y115.302 E0.01184
G1 X101.527 Y115.363 E0.03182
G1 X101.394 Y115.376 E0.008
G1 X101.166 Y115.395 E0.0137
G1 X101.054 Y115.403 E0.00672
G1 X100.682 Y115.424 E0.02231
G1 X100.568 Y115.429 E0.00683
G1 X100.294 Y115.437 E0.01641
G1 X100.171 Y115.439 E0.00736
G1 X99.76 Y115.439 E0.02461
G1 X99.569 Y115.435 E0.01144
G1 X99.042 Y115.411 E0.03158
G1 X98.894 Y115.401 E0.00888
G1 X98.598 Y115.377 E0.01778
G1 X98.483 Y115.366 E0.00692
G1 X98.161 Y115.331 E0.01939
G1 X98.047 Y115.317 E0.00688
G1 X97.776 Y115.28 E0.01637
G1 X97.654 Y115.262 E0.00738
G1 X97.264 Y115.197 E0.02367
G1 X97.075 Y115.161 E0.01152
G1 X96.505 Y115.039 E0.0349
G1 X96.35 Y115.003 E0.00953
G1 X96.098 Y114.939 E0.01557
G1 X96.002 Y114.913 E0.00595
G1 X95.594 Y114.799 E0.02536
G1 X95.398 Y114.739 E0.01227
G1 X94.944 Y114.588 E0.02864
G1 X94.82 Y114.545 E0.00786
G1 X94.472 Y114.417 E0.0222
G1 X94.349 Y114.369 E0.0079
G1 X94.042 Y114.245 E0.01982
G1 X93.927 Y114.197 E0.00746
G1 X93.731 Y114.111 E0.01281
G1 X93.641 Y114.07 E0.00592
G1 X93.245 Y113.885 E0.02617
G1 X93.065 Y113.796 E0.01202
G1 X92.583 Y113.542 E0.03262
G1 X92.452 Y113.47 E0.00895
G1 X92.206 Y113.329 E0.01698
G1 X92.118 Y113.277 E0.00612
G1 X91.793 Y113.08 E0.02275
G1 X91.622 Y112.971 E0.01214
G1 X91.171 Y112.667 E0.03256
G1 X91.057 Y112.587 E0.00834
G1 X90.811 Y112.409 E0.01818
G1 X90.702 Y112.327 E0.00817
G1 X90.445 Y112.128 E0.01946
G1 X90.371 Y112.07 E0.00563
G1 X90.144 Y111.886 E0.01749
G1 X90.048 Y111.805 E0.00752
G1 X89.81 Y111.6 E0.01881
G1 X89.718 Y111.518 E0.00738
G1 X89.509 Y111.327 E0.01695
G1 X89.432 Y111.255 E0.00631
G1 X89.098 Y110.934 E0.02773
G1 X88.962 Y110.798 E0.01151
G1 X88.661 Y110.481 E0.02617
G1 X88.554 Y110.364 E0.00949
G1 X88.326 Y110.105 E0.02066
G1 X88.26 Y110.028 E0.00607
G1 X88.037 Y109.762 E0.02078
G1 X87.953 Y109.659 E0.00796
G1 X87.788 Y109.449 E0.01599
G1 X87.722 Y109.362 E0.00654
G1 X87.489 Y109.049 E0.02336
G1 X87.375 Y108.888 E0.01181
G1 X87.028 Y108.373 E0.03718
G1 X86.907 Y108.182 E0.01354
G1 X86.639 Y107.734 E0.03125
G1 X86.577 Y107.627 E0.0074
G1 X86.425 Y107.355 E0.01865
G1 X86.357 Y107.229 E0.00857
G1 X86.17 Y106.866 E0.02445
G1 X86.087 Y106.696 E0.01133
G1 X85.867 Y106.217 E0.03156
G1 X85.813 Y106.095 E0.00799
G1 X85.714 Y105.86 E0.01527
G1 X85.667 Y105.743 E0.00755
G1 X85.531 Y105.391 E0.02259
G1 X85.488 Y105.275 E0.00741
G1 X85.41 Y105.054 E0.01403
G1 X85.374 Y104.945 E0.00687
G1 X85.245 Y104.545 E0.02516
G1 X85.193 Y104.371 E0.01087
G1 X85.052 Y103.859 E0.03179
G1 X85.016 Y103.718 E0.00871
G1 X84.938 Y103.391 E0.02013
G1 X84.909 Y103.261 E0.00797
G1 X84.846 Y102.954 E0.01876
G1 X84.825 Y102.846 E0.00659
G1 X84.775 Y102.565 E0.01709
G1 X84.756 Y102.451 E0.00692
G1 X84.703 Y102.097 E0.02143
G1 X84.679 Y101.908 E0.01141
G1 X84.617 Y101.31 E0.03599
G1 X84.605 Y101.167 E0.00859
G1 X84.59 Y100.95 E0.01302
G1 X84.584 Y100.832 E0.00707
G1 X84.566 Y100.393 E0.0263
G1 X84.562 Y100.221 E0.0103
G1 X84.562 Y99.758 E0.02772
G1 X84.565 Y99.589 E0.01012
G1 X84.581 Y99.191 E0.02385
G1 X84.588 Y99.066 E0.0075
G1 X84.617 Y98.653 E0.02479
G1 X84.636 Y98.454 E0.01197
G1 X84.692 Y97.98 E0.02857
G1 X84.711 Y97.84 E0.00846
G1 X84.759 Y97.525 E0.01908
G1 X84.777 Y97.418 E0.0065
G1 X84.835 Y97.094 E0.01971
G1 X84.855 Y96.986 E0.00658
G1 X84.902 Y96.758 E0.01394
G1 X84.929 Y96.639 E0.00731
G1 X85.012 Y96.288 E0.02159
G1 X85.044 Y96.162 E0.00778
G1 X85.113 Y95.906 E0.01587
G1 X85.138 Y95.815 E0.00565
G1 X85.264 Y95.386 E0.02677
G1 X85.327 Y95.19 E0.01233
G1 X85.503 Y94.684 E0.03207
G1 X85.557 Y94.539 E0.00926
G1 X85.64 Y94.326 E0.01369
G1 X85.675 Y94.239 E0.00561
G1 X85.828 Y93.871 E0.02386
G1 X85.888 Y93.733 E0.00901
G1 X85.987 Y93.517 E0.01423
G1 X86.022 Y93.443 E0.0049
G1 X86.197 Y93.08 E0.02413
G1 X86.291 Y92.897 E0.01232
G1 X86.594 Y92.34 E0.03796
G1 X86.705 Y92.148 E0.01328
G1 X86.973 Y91.712 E0.03064
G1 X87.054 Y91.584 E0.00907
G1 X87.243 Y91.3 E0.02042
G1 X87.314 Y91.198 E0.00744
G1 X87.509 Y90.923 E0.02018
G1 X87.579 Y90.826 E0.00716
G1 X87.719 Y90.64 E0.01394
G1 X87.778 Y90.564 E0.00576
G1 X87.984 Y90.303 E0.01991
G1 X88.061 Y90.209 E0.00727
G1 X88.241 Y89.994 E0.01679
G1 X88.317 Y89.905 E0.00701
G1 X88.557 Y89.634 E0.02167
G1 X88.629 Y89.555 E0.0064
G1 X88.78 Y89.393 E0.01326
G1 X88.871 Y89.299 E0.00783
G1 X89.255 Y88.912 E0.03264
G0 F1800 X89.595 Y89.25
G1 F900 X89.72 Y89.13 E0.01037
G1 X90.001 Y88.872 E0.02284
G1 X90.092 Y88.791 E0.00729
G1 X90.37 Y88.552 E0.02195
G1 X90.48 Y88.461 E0.00855
G1 X90.939 Y88.096 E0.03511
G1 X91.075 Y87.993 E0.01021
G1 X91.331 Y87.808 E0.01891
G1 X91.401 Y87.759 E0.00512
G1 X91.661 Y87.58 E0.0189
G1 X91.758 Y87.515 E0.00699
G1 X92.139 Y87.27 E0.02712
G1 X92.296 Y87.174 E0.01102
G1 X92.642 Y86.975 E0.0239
G1 X92.74 Y86.921 E0.0067
G1 X93.115 Y86.72 E0.02547
G1 X93.212 Y86.67 E0.00653
G1 X93.539 Y86.507 E0.02187
G1 X93.687 Y86.437 E0.0098
G1 X94.121 Y86.244 E0.02844
G1 X94.23 Y86.198 E0.00708
G1 X94.532 Y86.075 E0.01952
G1 X94.658 Y86.026 E0.00809
G1 X95.019 Y85.894 E0.02301
G1 X95.159 Y85.846 E0.00886
G1 X95.751 Y85.656 E0.03722
G1 X95.958 Y85.596 E0.0129
G1 X96.508 Y85.454 E0.03401
G1 X96.618 Y85.428 E0.00677
G1 X96.879 Y85.369 E0.01602
G1 X97.004 Y85.342 E0.00766
G1 X97.367 Y85.273 E0.02212
G1 X97.471 Y85.255 E0.00632
G1 X97.67 Y85.223 E0.01207
G1 X97.75 Y85.211 E0.00484
G1 X98.219 Y85.146 E0.02835
G1 X98.4 Y85.126 E0.0109
G1 X98.872 Y85.084 E0.02837
G1 X99.002 Y85.074 E0.00781
G1 X99.336 Y85.056 E0.02003
G1 X99.431 Y85.052 E0.00569
G1 X99.891 Y85.039 E0.02755
G1 X100.08 Y85.039 E0.01132
G1 X100.48 Y85.048 E0.02395
G1 X100.594 Y85.052 E0.00683
G1 X101.006 Y85.074 E0.0247
G1 X101.115 Y85.082 E0.00654
G1 X101.453 Y85.11 E0.0203
G1 X101.62 Y85.127 E0.01005
G1 X102.204 Y85.202 E0.03525
G1 X102.402 Y85.233 E0.012
G1 X102.952 Y85.334 E0.03348
G1 X103.079 Y85.36 E0.00776
G1 X103.37 Y85.424 E0.01784
G1 X103.482 Y85.45 E0.00688
G1 X103.866 Y85.547 E0.02371
G1 X104.041 Y85.596 E0.01088
G1 X104.706 Y85.799 E0.04163
G1 X104.891 Y85.861 E0.01168
G1 X105.257 Y85.994 E0.02331
G1 X105.378 Y86.04 E0.00775
G1 X105.762 Y86.195 E0.02479
G1 X105.863 Y86.238 E0.00657
G1 X106.244 Y86.405 E0.0249
G1 X106.398 Y86.477 E0.01018
G1 X106.811 Y86.681 E0.02758
G1 X106.922 Y86.738 E0.00747
G1 X107.183 Y86.878 E0.01773
G1 X107.275 Y86.929 E0.0063
G1 X107.692 Y87.168 E0.02877
G1 X107.844 Y87.26 E0.01064
G1 X108.198 Y87.486 E0.02514
G1 X108.299 Y87.552 E0.00722
G1 X108.588 Y87.75 E0.02097
G1 X108.675 Y87.812 E0.0064
G1 X108.999 Y88.048 E0.024
G1 X109.139 Y88.155 E0.01055
G1 X109.582 Y88.511 E0.03402
G1 X109.729 Y88.636 E0.01155
G1 X110.185 Y89.043 E0.03659
G1 X110.286 Y89.136 E0.00822
G1 X110.44 Y89.284 E0.01279
G1 X110.507 Y89.35 E0.00563
G1 X110.771 Y89.617 E0.02248
G1 X110.838 Y89.686 E0.00576
G1 X111.008 Y89.867 E0.01487
G1 X111.087 Y89.954 E0.00704
G1 X111.325 Y90.224 E0.02155
G1 X111.388 Y90.298 E0.00582
G1 X111.556 Y90.499 E0.01568
G1 X111.622 Y90.581 E0.0063
G1 X111.869 Y90.894 E0.02387
G1 X111.969 Y91.026 E0.00991
G1 X112.297 Y91.482 E0.03363
G1 X112.375 Y91.594 E0.00817
G1 X112.508 Y91.794 E0.01438
G1 X112.563 Y91.88 E0.00611
G1 X112.819 Y92.289 E0.02889
G1 X112.909 Y92.44 E0.01052
G1 X113.135 Y92.842 E0.02761
G1 X113.195 Y92.953 E0.00755
G1 X113.366 Y93.283 E0.02225
G1 X113.411 Y93.374 E0.00608
G1 X113.564 Y93.69 E0.02102
G1 X113.634 Y93.842 E0.01002
G1 X113.836 Y94.312 E0.03063
G1 X113.885 Y94.432 E0.00776
G1 X113.999 Y94.725 E0.01882
G1 X114.039 Y94.833 E0.00689
G1 X114.177 Y95.223 E0.02477
G1 X114.23 Y95.384 E0.01015
G1 X114.378 Y95.872 E0.03053
G1 X114.414 Y96 E0.00796
G1 X114.495 Y96.306 E0.01895
G1 X114.525 Y96.428 E0.00752
G1 X114.656 Y97 E0.03513
G1 X114.7 Y97.222 E0.01355
G1 X114.796 Y97.801 E0.03514
G1 X114.817 Y97.949 E0.00895
G1 X114.872 Y98.39 E0.02661
G1 X114.89 Y98.571 E0.01089
G1 X114.934 Y99.155 E0.03506
G1 X114.941 Y99.27 E0.0069
G1 X114.951 Y99.497 E0.0136
G1 X114.955 Y99.61 E0.00677
G1 X114.961 Y100.049 E0.02628
G1 X114.959 Y100.228 E0.01072
G1 X114.942 Y100.723 E0.02965
G1 X114.936 Y100.842 E0.00713
G1 X114.914 Y101.173 E0.01986
G1 X114.905 Y101.277 E0.00625
G1 X114.872 Y101.625 E0.02093
G1 X114.853 Y101.791 E0.01
G1 X114.775 Y102.347 E0.03361
G1 X114.752 Y102.488 E0.00855
G1 X114.704 Y102.755 E0.01624
G1 X114.686 Y102.852 E0.00591
G1 X114.599 Y103.272 E0.02568
G1 X114.558 Y103.448 E0.01082
G1 X114.405 Y104.04 E0.03661
G1 X114.353 Y104.222 E0.01133
G1 X114.195 Y104.726 E0.03162
G1 X114.152 Y104.854 E0.00808
G1 X114.055 Y105.128 E0.0174
G1 X114.017 Y105.231 E0.00657
G1 X113.886 Y105.569 E0.0217
G1 X113.842 Y105.676 E0.00693
G1 X113.742 Y105.912 E0.01534
G1 X113.71 Y105.985 E0.00477
G1 X113.551 Y106.339 E0.02323
G1 X113.479 Y106.49 E0.01002
G1 X113.249 Y106.946 E0.03058
G1 X113.185 Y107.068 E0.00825
G1 X113.025 Y107.358 E0.01983
G1 X112.97 Y107.455 E0.00668
G1 X112.731 Y107.859 E0.0281
G1 X112.633 Y108.015 E0.01103
G1 X112.38 Y108.398 E0.02748
G1 X112.317 Y108.49 E0.00668
G1 X112.136 Y108.747 E0.01882
G1 X112.071 Y108.837 E0.00665
G1 X111.852 Y109.129 E0.02185
G1 X111.747 Y109.263 E0.01019
G1 X111.353 Y109.741 E0.03709
G1 X111.268 Y109.84 E0.00781
G1 X111.122 Y110.005 E0.01319
G1 X111.054 Y110.08 E0.00606
G1 X110.753 Y110.402 E0.02639
G1 X110.626 Y110.531 E0.01084
G1 X110.281 Y110.866 E0.02879
G1 X110.201 Y110.942 E0.00661
G1 X109.943 Y111.178 E0.02093
G1 X109.83 Y111.277 E0.00899
G1 X109.415 Y111.627 E0.0325
G1 X109.273 Y111.741 E0.0109
G1 X108.932 Y112.001 E0.02567
G1 X108.805 Y112.094 E0.00942
G1 X108.365 Y112.401 E0.03212
G1 X108.264 Y112.468 E0.00726
G1 X107.998 Y112.641 E0.019
G1 X107.898 Y112.704 E0.00708
G1 X107.54 Y112.921 E0.02506
G1 X107.399 Y113.003 E0.00977
G1 X107.01 Y113.216 E0.02655
G1 X106.887 Y113.28 E0.0083
