;FLAVOR:RepRap
;TIME:1364
;Filament used: 0.459396m
;Layer height: 0.1
;MINX:25.372
;MINY:83.499
;MINZ:0.3
;MAXX:58.375
;MAXY:116.501
;MAXZ:25
;Generated with Cura_SteamEngine 4.4.0
T0
M190 S60
M104 S200
M109 S200
M82 ;absolute extrusion mode
T0 ; Select Tool 0
G28 ; Home all axes
M83 ;relative extrusion mode
G1 F1500 E-6.5
;LAYER_COUNT:248
;LAYER:0
M107
G0 F3600 X32.933 Y84.358 Z0.3
;TYPE:SKIRT
G1 F1500 E6.5
G1 F1800 X33.461 Y84.162 E0.0281
G1 X33.745 Y84.068 E0.01492
G1 X34.307 Y83.906 E0.02918
G1 X34.574 Y83.839 E0.01373
G1 X35.155 Y83.714 E0.02965
G1 X35.473 Y83.659 E0.0161
G1 X36.065 Y83.581 E0.02979
G1 X36.336 Y83.555 E0.01358
G1 X36.828 Y83.524 E0.02459
G1 X37.016 Y83.517 E0.00939
G1 X37.887 Y83.503 E0.04346
G1 X37.949 Y83.502 E0.00309
G1 X45.522 Y83.499 E0.37782
G1 X45.589 Y83.5 E0.00334
G1 X46.824 Y83.52 E0.06162
G1 X47.005 Y83.527 E0.00904
G1 X47.41 Y83.552 E0.02024
G1 X47.659 Y83.575 E0.01248
G1 X48.028 Y83.621 E0.01855
G1 X48.138 Y83.636 E0.00554
G1 X48.347 Y83.668 E0.01055
G1 X48.53 Y83.7 E0.00927
G1 X48.928 Y83.78 E0.02025
G1 X49.162 Y83.835 E0.01199
G1 X49.722 Y83.983 E0.0289
G1 X50.001 Y84.068 E0.01455
G1 X50.559 Y84.26 E0.02944
G1 X50.838 Y84.367 E0.01491
G1 X51.403 Y84.61 E0.03068
G1 X51.666 Y84.735 E0.01453
G1 X52.136 Y84.979 E0.02642
G1 X52.289 Y85.063 E0.00871
G1 X52.487 Y85.177 E0.0114
G1 X52.628 Y85.262 E0.00821
G1 X52.965 Y85.475 E0.01989
G1 X53.174 Y85.616 E0.01258
G1 X53.631 Y85.947 E0.02815
G1 X53.859 Y86.125 E0.01443
G1 X54.33 Y86.521 E0.0307
G1 X54.556 Y86.726 E0.01522
G1 X54.959 Y87.121 E0.02815
G1 X55.055 Y87.219 E0.00684
G1 X55.196 Y87.367 E0.0102
G1 X55.336 Y87.522 E0.01042
G1 X55.583 Y87.81 E0.01893
G1 X55.657 Y87.898 E0.00574
G1 X55.784 Y88.055 E0.01007
G1 X55.89 Y88.193 E0.00868
G1 X56.117 Y88.5 E0.01905
G1 X56.252 Y88.693 E0.01175
G1 X56.578 Y89.193 E0.02978
G1 X56.699 Y89.392 E0.01162
G1 X56.83 Y89.621 E0.01316
G1 X56.956 Y89.859 E0.01344
G1 X57.348 Y90.666 E0.04476
G1 X57.446 Y90.885 E0.01197
G1 X57.525 Y91.076 E0.01031
G1 X57.599 Y91.268 E0.01027
G1 X57.732 Y91.643 E0.01985
G1 X57.803 Y91.864 E0.01158
G1 X57.966 Y92.425 E0.02915
G1 X58.038 Y92.714 E0.01486
G1 X58.16 Y93.291 E0.02942
G1 X58.21 Y93.573 E0.01429
G1 X58.287 Y94.133 E0.0282
G1 X58.307 Y94.311 E0.00894
G1 X58.327 Y94.528 E0.01087
G1 X58.34 Y94.711 E0.00915
G1 X58.352 Y94.971 E0.01299
G1 X58.355 Y95.086 E0.00574
G1 X58.371 Y96.008 E0.04601
G1 X58.372 Y96.075 E0.00334
G1 X58.375 Y103.616 E0.37622
G1 X58.374 Y103.686 E0.00349
G1 X58.352 Y104.979 E0.06452
G1 X58.345 Y105.161 E0.00909
G1 X58.322 Y105.528 E0.01835
G1 X58.301 Y105.761 E0.01167
G1 X58.254 Y106.147 E0.0194
G1 X58.216 Y106.39 E0.01227
G1 X58.105 Y106.991 E0.03049
G1 X58.038 Y107.291 E0.01534
G1 X57.887 Y107.86 E0.02937
G1 X57.806 Y108.129 E0.01402
G1 X57.624 Y108.661 E0.02805
G1 X57.556 Y108.845 E0.00979
G1 X57.48 Y109.036 E0.01026
G1 X57.416 Y109.186 E0.00814
G1 X57.255 Y109.547 E0.01972
G1 X57.21 Y109.645 E0.00538
G1 X57.121 Y109.831 E0.01029
G1 X57.045 Y109.981 E0.00839
G1 X56.867 Y110.316 E0.01893
G1 X56.739 Y110.54 E0.01287
G1 X56.423 Y111.052 E0.03002
G1 X56.262 Y111.293 E0.01446
G1 X55.919 Y111.768 E0.02923
G1 X55.732 Y112.007 E0.01514
G1 X55.351 Y112.458 E0.02945
G1 X55.158 Y112.671 E0.01434
G1 X54.753 Y113.086 E0.02893
G1 X54.535 Y113.292 E0.01496
G1 X54.087 Y113.687 E0.0298
G1 X53.867 Y113.868 E0.01421
G1 X53.421 Y114.208 E0.02798
G1 X53.283 Y114.309 E0.00853
G1 X53.118 Y114.424 E0.01003
G1 X52.963 Y114.527 E0.00928
G1 X52.628 Y114.738 E0.01975
G1 X52.423 Y114.858 E0.01185
G1 X51.901 Y115.145 E0.02972
G1 X51.636 Y115.278 E0.01479
G1 X51.091 Y115.527 E0.02989
G1 X50.824 Y115.638 E0.01443
G1 X50.289 Y115.837 E0.02848
G1 X50.005 Y115.931 E0.01492
G1 X49.424 Y116.099 E0.03017
G1 X49.143 Y116.169 E0.01445
G1 X48.582 Y116.288 E0.02861
G1 X48.276 Y116.341 E0.01549
G1 X47.678 Y116.42 E0.03009
G1 X47.411 Y116.446 E0.01338
G1 X46.976 Y116.474 E0.02175
G1 X46.786 Y116.481 E0.00949
G1 X45.826 Y116.497 E0.0479
G1 X45.761 Y116.498 E0.00324
G1 X38.229 Y116.501 E0.37577
G1 X38.162 Y116.5 E0.00334
G1 X36.931 Y116.48 E0.06142
G1 X36.747 Y116.473 E0.00919
G1 X36.33 Y116.447 E0.02084
G1 X36.088 Y116.425 E0.01212
G1 X35.724 Y116.38 E0.0183
G1 X35.615 Y116.365 E0.00549
G1 X35.404 Y116.333 E0.01065
G1 X35.216 Y116.3 E0.00952
G1 X34.818 Y116.22 E0.02025
G1 X34.581 Y116.164 E0.01215
G1 X34.023 Y116.016 E0.0288
G1 X33.749 Y115.933 E0.01428
G1 X33.19 Y115.741 E0.02949
G1 X32.905 Y115.631 E0.01524
G1 X32.339 Y115.387 E0.03075
G1 X32.084 Y115.266 E0.01408
G1 X31.605 Y115.018 E0.02691
G1 X31.446 Y114.931 E0.00904
G1 X31.257 Y114.822 E0.01088
G1 X31.113 Y114.735 E0.00839
G1 X30.774 Y114.52 E0.02003
G1 X30.561 Y114.375 E0.01286
G1 X30.082 Y114.026 E0.02957
G1 X29.855 Y113.848 E0.01439
G1 X29.409 Y113.471 E0.02914
G1 X29.19 Y113.272 E0.01476
G1 X28.772 Y112.862 E0.02921
G1 X28.568 Y112.646 E0.01482
G1 X28.17 Y112.193 E0.03008
G1 X27.99 Y111.973 E0.01418
G1 X27.658 Y111.536 E0.02738
G1 X27.551 Y111.389 E0.00907
G1 X27.435 Y111.221 E0.01019
G1 X27.35 Y111.092 E0.00771
G1 X27.143 Y110.766 E0.01927
G1 X27.048 Y110.608 E0.0092
G1 X26.917 Y110.379 E0.01316
G1 X26.789 Y110.136 E0.0137
G1 X26.392 Y109.316 E0.04545
G1 X26.247 Y108.979 E0.0183
G1 X26.039 Y108.425 E0.02952
G1 X25.939 Y108.122 E0.01592
G1 X25.781 Y107.571 E0.0286
G1 X25.74 Y107.416 E0.008
G1 X25.689 Y107.207 E0.01073
G1 X25.655 Y107.053 E0.00787
G1 X25.578 Y106.673 E0.01934
G1 X25.531 Y106.396 E0.01402
G1 X25.453 Y105.797 E0.03014
G1 X25.428 Y105.538 E0.01298
G1 X25.4 Y105.104 E0.0217
G1 X25.393 Y104.912 E0.00959
G1 X25.377 Y103.949 E0.04805
G1 X25.376 Y103.885 E0.00319
G1 X25.372 Y96.439 E0.37148
G1 X25.373 Y96.367 E0.00359
G1 X25.397 Y94.989 E0.06876
G1 X25.404 Y94.809 E0.00899
G1 X25.425 Y94.473 E0.0168
G1 X25.448 Y94.227 E0.01233
G1 X25.497 Y93.835 E0.01971
G1 X25.511 Y93.735 E0.00504
G1 X25.541 Y93.536 E0.01004
G1 X25.574 Y93.346 E0.00962
G1 X25.653 Y92.952 E0.02005
G1 X25.708 Y92.715 E0.01214
G1 X25.863 Y92.129 E0.03024
G1 X25.95 Y91.843 E0.01491
G1 X26.137 Y91.303 E0.02851
G1 X26.242 Y91.031 E0.01455
G1 X26.479 Y90.48 E0.02992
G1 X26.609 Y90.208 E0.01504
G1 X26.887 Y89.676 E0.02995
G1 X27.029 Y89.427 E0.0143
G1 X27.326 Y88.946 E0.0282
G1 X27.486 Y88.706 E0.01439
G1 X27.829 Y88.231 E0.02923
G1 X28.018 Y87.989 E0.01532
G1 X28.403 Y87.534 E0.02974
G1 X28.595 Y87.324 E0.0142
G1 X29.003 Y86.906 E0.02914
G1 X29.227 Y86.693 E0.01542
G1 X29.683 Y86.293 E0.03026
G1 X29.904 Y86.113 E0.01422
G1 X30.326 Y85.793 E0.02642
G1 X30.45 Y85.702 E0.00767
G1 X30.633 Y85.574 E0.01114
G1 X30.798 Y85.465 E0.00987
G1 X31.129 Y85.257 E0.0195
G1 X31.328 Y85.14 E0.01152
G1 X31.844 Y84.856 E0.02938
G1 X32.112 Y84.721 E0.01497
G1 X32.664 Y84.469 E0.03027
G1 X32.933 Y84.358 E0.01452
G0 F3600 X33.072 Y84.733
G1 F1800 X33.6 Y84.537 E0.0281
G1 X33.856 Y84.453 E0.01344
G1 X34.418 Y84.291 E0.02918
G1 X34.658 Y84.231 E0.01234
G1 X35.239 Y84.106 E0.02965
G1 X35.526 Y84.056 E0.01453
G1 X36.118 Y83.978 E0.02979
G1 X36.362 Y83.954 E0.01223
G1 X36.854 Y83.923 E0.02459
G1 X37.022 Y83.916 E0.00839
G1 X37.893 Y83.902 E0.04346
G1 X37.95 Y83.902 E0.00284
G1 X45.523 Y83.899 E0.37782
G1 X45.582 Y83.899 E0.00294
G1 X46.817 Y83.919 E0.06162
G1 X46.981 Y83.926 E0.00819
G1 X47.386 Y83.951 E0.02024
G1 X47.609 Y83.972 E0.01117
G1 X47.978 Y84.018 E0.01855
G1 X48.078 Y84.031 E0.00503
G1 X48.287 Y84.063 E0.01055
G1 X48.451 Y84.093 E0.00832
G1 X48.849 Y84.173 E0.02025
G1 X49.06 Y84.221 E0.0108
G1 X49.62 Y84.369 E0.0289
G1 X49.871 Y84.446 E0.0131
G1 X50.429 Y84.638 E0.02944
G1 X50.68 Y84.735 E0.01343
G1 X51.245 Y84.978 E0.03068
G1 X51.482 Y85.09 E0.01308
G1 X51.952 Y85.334 E0.02642
G1 X52.089 Y85.409 E0.00779
G1 X52.287 Y85.523 E0.0114
G1 X52.414 Y85.6 E0.00741
G1 X52.751 Y85.813 E0.01989
G1 X52.94 Y85.94 E0.01136
G1 X53.397 Y86.271 E0.02815
G1 X53.602 Y86.432 E0.013
G1 X54.073 Y86.828 E0.0307
G1 X54.276 Y87.012 E0.01367
G1 X54.679 Y87.407 E0.02815
G1 X54.765 Y87.495 E0.00614
G1 X54.906 Y87.643 E0.0102
G1 X55.033 Y87.782 E0.00939
G1 X55.28 Y88.07 E0.01893
G1 X55.346 Y88.15 E0.00517
G1 X55.473 Y88.307 E0.01007
G1 X55.569 Y88.431 E0.00782
G1 X55.796 Y88.738 E0.01905
G1 X55.917 Y88.912 E0.01057
G1 X56.243 Y89.412 E0.02978
G1 X56.352 Y89.59 E0.01041
G1 X56.483 Y89.819 E0.01316
G1 X56.596 Y90.034 E0.01212
G1 X56.988 Y90.841 E0.04476
G1 X57.077 Y91.038 E0.01078
G1 X57.156 Y91.229 E0.01031
G1 X57.222 Y91.402 E0.00924
G1 X57.355 Y91.777 E0.01985
G1 X57.419 Y91.976 E0.01043
G1 X57.582 Y92.537 E0.02915
G1 X57.647 Y92.796 E0.01332
G1 X57.769 Y93.373 E0.02942
G1 X57.813 Y93.628 E0.01291
G1 X57.89 Y94.188 E0.0282
G1 X57.909 Y94.348 E0.00804
G1 X57.929 Y94.565 E0.01087
G1 X57.94 Y94.729 E0.0082
G1 X57.952 Y94.989 E0.01299
G1 X57.955 Y95.093 E0.00519
G1 X57.971 Y96.015 E0.04601
G1 X57.972 Y96.076 E0.00304
G1 X57.975 Y103.617 E0.37622
G1 X57.974 Y103.679 E0.00309
G1 X57.952 Y104.972 E0.06452
G1 X57.946 Y105.136 E0.00819
G1 X57.923 Y105.503 E0.01835
G1 X57.904 Y105.713 E0.01052
G1 X57.857 Y106.099 E0.0194
G1 X57.823 Y106.318 E0.01106
G1 X57.712 Y106.919 E0.03049
G1 X57.652 Y107.188 E0.01375
G1 X57.501 Y107.757 E0.02937
G1 X57.427 Y107.999 E0.01263
G1 X57.245 Y108.531 E0.02805
G1 X57.184 Y108.697 E0.00882
G1 X57.108 Y108.888 E0.01026
G1 X57.051 Y109.023 E0.00731
G1 X56.89 Y109.384 E0.01972
G1 X56.849 Y109.472 E0.00484
G1 X56.76 Y109.658 E0.01029
G1 X56.692 Y109.793 E0.00754
G1 X56.514 Y110.128 E0.01893
G1 X56.399 Y110.33 E0.0116
G1 X56.083 Y110.842 E0.03002
G1 X55.938 Y111.059 E0.01302
G1 X55.595 Y111.534 E0.02923
G1 X55.426 Y111.749 E0.01364
G1 X55.045 Y112.2 E0.02945
G1 X54.871 Y112.391 E0.01289
G1 X54.466 Y112.806 E0.02893
G1 X54.271 Y112.992 E0.01344
G1 X53.823 Y113.387 E0.0298
G1 X53.625 Y113.55 E0.01279
G1 X53.179 Y113.89 E0.02798
G1 X53.054 Y113.98 E0.00768
G1 X52.889 Y114.095 E0.01003
G1 X52.75 Y114.188 E0.00834
G1 X52.415 Y114.399 E0.01975
G1 X52.23 Y114.508 E0.01071
G1 X51.708 Y114.795 E0.02972
G1 X51.47 Y114.914 E0.01328
G1 X50.925 Y115.163 E0.02989
G1 X50.684 Y115.263 E0.01302
G1 X50.149 Y115.462 E0.02848
G1 X49.894 Y115.546 E0.01339
G1 X49.313 Y115.714 E0.03017
G1 X49.06 Y115.778 E0.01302
G1 X48.499 Y115.897 E0.02861
G1 X48.223 Y115.944 E0.01397
G1 X47.625 Y116.023 E0.03009
G1 X47.385 Y116.047 E0.01203
G1 X46.95 Y116.075 E0.02175
G1 X46.779 Y116.082 E0.00854
G1 X45.819 Y116.098 E0.0479
G1 X45.76 Y116.098 E0.00294
G1 X38.228 Y116.101 E0.37577
G1 X38.169 Y116.101 E0.00294
G1 X36.938 Y116.081 E0.06142
G1 X36.772 Y116.074 E0.00829
G1 X36.355 Y116.048 E0.02084
G1 X36.137 Y116.028 E0.01092
G1 X35.773 Y115.983 E0.0183
G1 X35.675 Y115.969 E0.00494
G1 X35.464 Y115.937 E0.01065
G1 X35.295 Y115.907 E0.00856
G1 X34.897 Y115.827 E0.02025
G1 X34.683 Y115.778 E0.01095
G1 X34.125 Y115.63 E0.0288
G1 X33.879 Y115.555 E0.01283
G1 X33.32 Y115.363 E0.02949
G1 X33.064 Y115.264 E0.01369
G1 X32.498 Y115.02 E0.03075
G1 X32.268 Y114.911 E0.0127
G1 X31.789 Y114.663 E0.02691
G1 X31.645 Y114.585 E0.00817
G1 X31.456 Y114.476 E0.01088
G1 X31.327 Y114.397 E0.00755
G1 X30.988 Y114.182 E0.02003
G1 X30.796 Y114.052 E0.01157
G1 X30.317 Y113.703 E0.02957
G1 X30.113 Y113.542 E0.01297
G1 X29.667 Y113.165 E0.02914
G1 X29.47 Y112.986 E0.01328
G1 X29.052 Y112.576 E0.02921
G1 X28.869 Y112.382 E0.01331
G1 X28.471 Y111.929 E0.03008
G1 X28.308 Y111.731 E0.01279
G1 X27.976 Y111.294 E0.02738
G1 X27.881 Y111.161 E0.00815
G1 X27.765 Y110.993 E0.01019
G1 X27.688 Y110.878 E0.0069
G1 X27.481 Y110.552 E0.01927
G1 X27.395 Y110.41 E0.00828
G1 X27.264 Y110.181 E0.01316
G1 X27.149 Y109.962 E0.01234
G1 X26.752 Y109.142 E0.04545
G1 X26.622 Y108.838 E0.0165
G1 X26.414 Y108.284 E0.02952
G1 X26.323 Y108.011 E0.01436
G1 X26.165 Y107.46 E0.0286
G1 X26.129 Y107.321 E0.00716
G1 X26.078 Y107.112 E0.01073
G1 X26.047 Y106.974 E0.00706
G1 X25.97 Y106.594 E0.01934
G1 X25.928 Y106.344 E0.01265
G1 X25.85 Y105.745 E0.03014
G1 X25.827 Y105.512 E0.01168
G1 X25.799 Y105.078 E0.0217
G1 X25.792 Y104.906 E0.00859
G1 X25.776 Y103.943 E0.04805
G1 X25.776 Y103.885 E0.00289
G1 X25.772 Y96.439 E0.37148
G1 X25.773 Y96.374 E0.00324
G1 X25.797 Y94.996 E0.06876
G1 X25.803 Y94.834 E0.00809
G1 X25.824 Y94.498 E0.0168
G1 X25.845 Y94.276 E0.01113
G1 X25.894 Y93.884 E0.01971
G1 X25.906 Y93.794 E0.00453
G1 X25.936 Y93.595 E0.01004
G1 X25.966 Y93.424 E0.00866
G1 X26.045 Y93.03 E0.02005
G1 X26.095 Y92.817 E0.01092
G1 X26.25 Y92.231 E0.03024
G1 X26.328 Y91.974 E0.0134
G1 X26.515 Y91.434 E0.02851
G1 X26.61 Y91.19 E0.01306
G1 X26.847 Y90.639 E0.02992
G1 X26.963 Y90.394 E0.01352
G1 X27.241 Y89.862 E0.02995
G1 X27.369 Y89.638 E0.01287
G1 X27.666 Y89.157 E0.0282
G1 X27.81 Y88.94 E0.01299
G1 X28.153 Y88.465 E0.02923
G1 X28.324 Y88.248 E0.01378
G1 X28.709 Y87.793 E0.02974
G1 X28.881 Y87.603 E0.01279
G1 X29.289 Y87.185 E0.02914
G1 X29.491 Y86.994 E0.01387
G1 X29.947 Y86.594 E0.03026
G1 X30.146 Y86.431 E0.01283
G1 X30.568 Y86.111 E0.02642
G1 X30.68 Y86.03 E0.0069
G1 X30.863 Y85.902 E0.01114
G1 X31.011 Y85.804 E0.00886
G1 X31.342 Y85.596 E0.0195
G1 X31.521 Y85.49 E0.01038
G1 X32.037 Y85.206 E0.02938
G1 X32.278 Y85.085 E0.01345
G1 X32.83 Y84.833 E0.03027
G1 X33.072 Y84.733 E0.01306
G0 F3600 X33.211 Y85.108
G1 F1800 X33.739 Y84.912 E0.0281
G1 X33.967 Y84.837 E0.01197
G1 X34.529 Y84.675 E0.02918
G1 X34.742 Y84.622 E0.01095
G1 X35.323 Y84.497 E0.02965
G1 X35.578 Y84.452 E0.01292
G1 X36.17 Y84.374 E0.02979
G1 X36.387 Y84.353 E0.01088
G1 X36.879 Y84.322 E0.02459
G1 X37.029 Y84.316 E0.00749
G1 X37.9 Y84.302 E0.04346
G1 X37.95 Y84.302 E0.00249
G1 X45.523 Y84.299 E0.37782
G1 X45.576 Y84.299 E0.00264
G1 X46.811 Y84.319 E0.06162
G1 X46.956 Y84.325 E0.00724
G1 X47.361 Y84.35 E0.02024
G1 X47.56 Y84.369 E0.00997
G1 X47.929 Y84.415 E0.01855
G1 X48.017 Y84.427 E0.00443
G1 X48.226 Y84.459 E0.01055
G1 X48.373 Y84.485 E0.00745
G1 X48.771 Y84.565 E0.02025
G1 X48.958 Y84.608 E0.00957
G1 X49.518 Y84.756 E0.0289
G1 X49.741 Y84.824 E0.01163
G1 X50.299 Y85.016 E0.02944
G1 X50.522 Y85.102 E0.01192
G1 X51.087 Y85.345 E0.03068
G1 X51.297 Y85.445 E0.0116
G1 X51.767 Y85.689 E0.02642
G1 X51.89 Y85.756 E0.00699
G1 X52.088 Y85.87 E0.0114
G1 X52.201 Y85.938 E0.00658
G1 X52.538 Y86.151 E0.01989
G1 X52.705 Y86.264 E0.01006
G1 X53.162 Y86.595 E0.02815
G1 X53.344 Y86.738 E0.01155
G1 X53.815 Y87.134 E0.0307
G1 X53.996 Y87.298 E0.01219
G1 X54.399 Y87.693 E0.02815
G1 X54.476 Y87.771 E0.00547
G1 X54.617 Y87.919 E0.0102
G1 X54.729 Y88.043 E0.00834
G1 X54.976 Y88.331 E0.01893
G1 X55.035 Y88.401 E0.00457
G1 X55.162 Y88.558 E0.01007
G1 X55.247 Y88.668 E0.00694
G1 X55.474 Y88.975 E0.01905
G1 X55.582 Y89.13 E0.00943
G1 X55.908 Y89.63 E0.02978
G1 X56.005 Y89.789 E0.00929
G1 X56.136 Y90.018 E0.01316
G1 X56.236 Y90.209 E0.01076
G1 X56.628 Y91.016 E0.04476
G1 X56.707 Y91.191 E0.00958
G1 X56.786 Y91.382 E0.01031
G1 X56.845 Y91.535 E0.00818
G1 X56.978 Y91.91 E0.01985
G1 X57.035 Y92.087 E0.00928
G1 X57.198 Y92.648 E0.02915
G1 X57.256 Y92.879 E0.01188
G1 X57.378 Y93.456 E0.02942
G1 X57.417 Y93.682 E0.01144
G1 X57.494 Y94.242 E0.0282
G1 X57.51 Y94.384 E0.00713
G1 X57.53 Y94.601 E0.01087
G1 X57.541 Y94.747 E0.0073
G1 X57.553 Y95.007 E0.01299
G1 X57.556 Y95.099 E0.00459
G1 X57.572 Y96.021 E0.04601
G1 X57.572 Y96.076 E0.00274
G1 X57.575 Y103.617 E0.37622
G1 X57.575 Y103.672 E0.00274
G1 X57.553 Y104.965 E0.06452
G1 X57.547 Y105.111 E0.00729
G1 X57.524 Y105.478 E0.01835
G1 X57.507 Y105.665 E0.00937
G1 X57.46 Y106.051 E0.0194
G1 X57.43 Y106.245 E0.00979
G1 X57.319 Y106.846 E0.03049
G1 X57.265 Y107.086 E0.01227
G1 X57.114 Y107.655 E0.02937
G1 X57.049 Y107.87 E0.01121
G1 X56.867 Y108.402 E0.02805
G1 X56.812 Y108.549 E0.00783
G1 X56.736 Y108.74 E0.01026
G1 X56.686 Y108.86 E0.00649
G1 X56.525 Y109.221 E0.01972
G1 X56.489 Y109.299 E0.00429
G1 X56.4 Y109.485 E0.01029
G1 X56.339 Y109.606 E0.00676
G1 X56.161 Y109.941 E0.01893
G1 X56.058 Y110.12 E0.0103
G1 X55.742 Y110.632 E0.03002
G1 X55.613 Y110.824 E0.01154
G1 X55.27 Y111.299 E0.02923
G1 X55.12 Y111.491 E0.01216
G1 X54.739 Y111.942 E0.02945
G1 X54.585 Y112.112 E0.01144
G1 X54.18 Y112.527 E0.02893
G1 X54.006 Y112.692 E0.01196
G1 X53.558 Y113.087 E0.0298
G1 X53.382 Y113.232 E0.01138
G1 X52.936 Y113.572 E0.02798
G1 X52.826 Y113.652 E0.00679
G1 X52.661 Y113.767 E0.01003
