;FLAVOR:RepRap
;TIME:3099
;Filament used: 2.50991m
;Layer height: 0.12
;MINX:83.78
;MINY:77.541
;MINZ:0.3
;MAXX:116.22
;MAXY:122.47
;MAXZ:14.94
;Generated with Cura_SteamEngine 4.4.0
T0
M190 S60
M104 S190
M109 S190
M82 ;absolute extrusion mode
G28   ; Home
G1 Z15.0 F6000 ;Move the platform down 15mm
;Prime the extruder
G92 E0
G1 F200 E3
G92 E0
M83 ;relative extrusion mode
G1 F1500 E-6.5
; CODE
G1 X100 Y50 E0
G1 X150 Y50 E0
G1 X150.0 Y100.0 E0
G1 X149.8097349045873 Y104.35778713738291 E0
G1 X149.2403876506104 Y108.68240888334651 E0
G1 X148.2962913144534 Y112.94095225512604 E0
G1 X146.98463103929544 Y117.10100716628344 E0
G1 X145.3153893518325 Y121.13091308703497 E0
G1 X143.30127018922195 Y125.0 E0
G1 X140.9576022144496 Y128.67882181755232 E0
G1 X138.3022221559489 Y132.13938048432698 E0
G1 X135.35533905932738 Y135.35533905932738 E0
G1 X132.13938048432698 Y138.3022221559489 E0
G1 X128.67882181755232 Y140.9576022144496 E0
G1 X125.0 Y143.30127018922192 E0
G1 X121.13091308703497 Y145.3153893518325 E0
G1 X117.10100716628344 Y146.9846310392954 E0
G1 X112.94095225512604 Y148.2962913144534 E0
G1 X108.68240888334653 Y149.2403876506104 E0
G1 X104.3577871373829 Y149.8097349045873 E0
G1 X100.0 Y150.0 E0
G1 X50 Y150 E0
G1 X50 Y100 E0
