;FLAVOR:RepRap
;TIME:3099
;Filament used: 2.50991m
;Layer height: 0.12
;MINX:83.78
;MINY:77.541
;MINZ:0.3
;MAXX:116.22
;MAXY:122.47
;MAXZ:14.94
;Generated with Cura_SteamEngine 4.4.0
T0
M190 S60
M104 S190
M109 S190
M82 ;absolute extrusion mode
G28   ; Home
G1 Z15.0 F6000 ;Move the platform down 15mm
;Prime the extruder
G92 E0
G1 F200 E3
G92 E0
M83 ;relative extrusion mode
G1 F1500 E-6.5
;LAYER_COUNT:123
;LAYER:0
M107
M204 T1000
G0 F1800 X88.069 Y82.773 Z0.3
M204 P325
;TYPE:SKIRT
G1 F1500 E6.5
G1 F900 X88.317 Y82.513 E0.02151
G1 X88.445 Y82.385 E0.01084
G1 X89.241 Y81.628 E0.06576
G1 X89.436 Y81.456 E0.01557
G1 X89.999 Y80.991 E0.04372
G1 X90.163 Y80.863 E0.01245
G1 X90.591 Y80.548 E0.03182
G1 X90.719 Y80.458 E0.00937
G1 X91.178 Y80.149 E0.03313
G1 X91.324 Y80.056 E0.01036
G1 X91.645 Y79.861 E0.02249
G1 X91.793 Y79.775 E0.01025
G1 X92.718 Y79.27 E0.06309
G1 X93.014 Y79.125 E0.01973
G1 X94.023 Y78.685 E0.0659
G1 X94.334 Y78.566 E0.01994
G1 X95.399 Y78.211 E0.06721
G1 X95.613 Y78.147 E0.01337
G1 X96.121 Y78.011 E0.03148
G1 X96.377 Y77.952 E0.01573
G1 X97.438 Y77.747 E0.06469
G1 X97.683 Y77.708 E0.01485
G1 X98.404 Y77.618 E0.0435
G1 X98.609 Y77.598 E0.01233
G1 X99.16 Y77.56 E0.03307
G1 X99.328 Y77.552 E0.01007
G1 X99.751 Y77.542 E0.02533
G1 X99.85 Y77.541 E0.00593
G1 X100.184 Y77.542 E0.02
G1 X100.282 Y77.544 E0.00587
G1 X100.658 Y77.555 E0.02252
G1 X100.887 Y77.568 E0.01373
G1 X102.094 Y77.678 E0.07256
G1 X102.36 Y77.712 E0.01605
G1 X103.022 Y77.821 E0.04017
G1 X103.234 Y77.863 E0.01294
G1 X103.63 Y77.952 E0.0243
G1 X103.809 Y77.997 E0.01105
G1 X104.864 Y78.29 E0.06555
G1 X105.112 Y78.368 E0.01556
G1 X105.786 Y78.607 E0.04281
G1 X105.973 Y78.679 E0.012
G1 X106.314 Y78.821 E0.02211
G1 X106.482 Y78.896 E0.01101
G1 X107.447 Y79.355 E0.06398
G1 X107.562 Y79.412 E0.00768
G1 X107.747 Y79.508 E0.01248
G1 X107.901 Y79.593 E0.01053
G1 X108.349 Y79.853 E0.03101
G1 X108.482 Y79.933 E0.00929
G1 X108.94 Y80.225 E0.03252
G1 X109.079 Y80.318 E0.01001
G1 X109.54 Y80.642 E0.03373
G1 X109.664 Y80.734 E0.00924
G1 X110.088 Y81.059 E0.03198
G1 X110.221 Y81.166 E0.01022
G1 X110.639 Y81.518 E0.03272
G1 X110.753 Y81.618 E0.00908
G1 X111.15 Y81.981 E0.03221
G1 X111.277 Y82.102 E0.0105
G1 X111.676 Y82.503 E0.03387
G1 X111.784 Y82.617 E0.0094
G1 X112.136 Y83.002 E0.03123
G1 X112.248 Y83.13 E0.01018
G1 X112.614 Y83.569 E0.03422
G1 X112.706 Y83.683 E0.00877
G1 X113.029 Y84.103 E0.03172
G1 X113.133 Y84.245 E0.01054
G1 X113.452 Y84.703 E0.03342
G1 X113.532 Y84.823 E0.00863
G1 X113.733 Y85.137 E0.02232
G1 X113.836 Y85.309 E0.012
G1 X114.346 Y86.209 E0.06193
G1 X114.406 Y86.318 E0.00745
G1 X114.507 Y86.511 E0.01304
G1 X114.584 Y86.667 E0.01042
G1 X114.81 Y87.153 E0.03209
G1 X114.874 Y87.298 E0.00949
G1 X115.082 Y87.8 E0.03253
G1 X115.142 Y87.956 E0.01001
G1 X115.328 Y88.469 E0.03267
G1 X115.38 Y88.623 E0.00973
G1 X115.541 Y89.136 E0.03219
G1 X115.586 Y89.291 E0.00966
G1 X115.734 Y89.846 E0.03439
G1 X115.771 Y89.997 E0.00931
G1 X115.887 Y90.518 E0.03196
G1 X115.921 Y90.69 E0.0105
G1 X116.014 Y91.226 E0.03257
G1 X116.038 Y91.384 E0.00957
G1 X116.107 Y91.917 E0.03218
G1 X116.124 Y92.073 E0.00939
G1 X116.172 Y92.625 E0.03317
G1 X116.183 Y92.794 E0.01014
G1 X116.198 Y93.158 E0.02181
G1 X116.201 Y93.256 E0.00587
G1 X116.211 Y93.937 E0.04077
G1 X116.211 Y93.991 E0.00323
G1 X116.22 Y118.013 E1.43816
G1 X116.22 Y118.065 E0.00311
G1 X116.21 Y118.789 E0.04335
G1 X116.162 Y119.332 E0.03264
G1 X116.036 Y119.863 E0.03267
G1 X115.833 Y120.369 E0.03264
G1 X115.559 Y120.84 E0.03262
G1 X115.219 Y121.266 E0.03263
G1 X114.82 Y121.638 E0.03266
G1 X114.371 Y121.947 E0.03263
G1 X113.882 Y122.188 E0.03264
G1 X113.363 Y122.354 E0.03262
G1 X112.629 Y122.455 E0.04436
G1 X112.309 Y122.467 E0.01917
G1 X112.17 Y122.47 E0.00832
G1 X88.159 Y122.47 E1.4375
G1 X87.461 Y122.461 E0.04179
G1 X86.918 Y122.414 E0.03263
G1 X86.387 Y122.288 E0.03267
G1 X85.881 Y122.086 E0.03262
G1 X85.41 Y121.812 E0.03262
G1 X84.983 Y121.472 E0.03268
G1 X84.611 Y121.074 E0.03262
G1 X84.302 Y120.625 E0.03263
G1 X84.061 Y120.136 E0.03264
G1 X83.894 Y119.617 E0.03264
G1 X83.79 Y118.842 E0.04681
G1 X83.781 Y118.509 E0.01994
G1 X83.78 Y118.408 E0.00605
G1 X83.783 Y94.126 E1.45372
G1 X83.783 Y94.073 E0.00317
G1 X83.795 Y93.223 E0.05089
G1 X83.802 Y93.046 E0.0106
G1 X83.838 Y92.464 E0.03491
G1 X83.852 Y92.304 E0.00962
G1 X83.906 Y91.792 E0.03082
G1 X83.928 Y91.62 E0.01038
G1 X84.014 Y91.057 E0.0341
G1 X84.039 Y90.909 E0.00899
G1 X84.144 Y90.369 E0.03293
G1 X84.181 Y90.203 E0.01018
G1 X84.266 Y89.852 E0.02162
G1 X84.315 Y89.669 E0.01134
G1 X84.632 Y88.601 E0.0667
G1 X84.713 Y88.36 E0.01522
G1 X84.948 Y87.73 E0.04026
G1 X85.026 Y87.536 E0.01252
G1 X85.261 Y87 E0.03504
G1 X85.323 Y86.867 E0.00879
G1 X85.556 Y86.388 E0.03189
G1 X85.633 Y86.239 E0.01004
G1 X85.889 Y85.768 E0.03209
G1 X85.971 Y85.623 E0.00997
G1 X86.246 Y85.167 E0.03188
G1 X86.329 Y85.036 E0.00928
G1 X86.536 Y84.723 E0.02247
G1 X86.648 Y84.563 E0.01169
G1 X87.313 Y83.664 E0.06695
G1 X87.475 Y83.46 E0.0156
G1 X87.932 Y82.925 E0.04212
G1 X88.069 Y82.773 E0.01225
G0 F1800 X88.417 Y83.105
G1 F900 X88.665 Y82.845 E0.02151
G1 X88.776 Y82.733 E0.00944
G1 X89.572 Y81.976 E0.06576
G1 X89.742 Y81.826 E0.01357
G1 X90.305 Y81.361 E0.04372
G1 X90.447 Y81.25 E0.01079
G1 X90.875 Y80.935 E0.03182
G1 X90.987 Y80.856 E0.00821
G1 X91.446 Y80.547 E0.03313
G1 X91.573 Y80.466 E0.00902
G1 X91.894 Y80.271 E0.02249
G1 X92.023 Y80.196 E0.00893
G1 X92.948 Y79.691 E0.06309
G1 X93.206 Y79.565 E0.01719
G1 X94.215 Y79.125 E0.0659
G1 X94.485 Y79.021 E0.01732
G1 X95.55 Y78.666 E0.06721
G1 X95.737 Y78.61 E0.01169
G1 X96.245 Y78.474 E0.03148
G1 X96.468 Y78.423 E0.0137
G1 X97.529 Y78.218 E0.06469
G1 X97.743 Y78.184 E0.01297
G1 X98.464 Y78.094 E0.0435
G1 X98.642 Y78.077 E0.01071
G1 X99.193 Y78.039 E0.03307
G1 X99.339 Y78.032 E0.00875
G1 X99.762 Y78.022 E0.02533
G1 X99.849 Y78.021 E0.00521
G1 X100.183 Y78.022 E0.02
G1 X100.268 Y78.023 E0.00509
G1 X100.644 Y78.034 E0.02252
G1 X100.843 Y78.046 E0.01194
G1 X102.05 Y78.156 E0.07256
G1 X102.282 Y78.186 E0.01401
G1 X102.944 Y78.295 E0.04017
G1 X103.128 Y78.331 E0.01122
G1 X103.524 Y78.42 E0.0243
G1 X103.681 Y78.459 E0.00968
G1 X104.736 Y78.752 E0.06555
G1 X104.952 Y78.82 E0.01356
G1 X105.626 Y79.059 E0.04281
G1 X105.789 Y79.122 E0.01046
G1 X106.13 Y79.264 E0.02211
G1 X106.276 Y79.329 E0.00957
G1 X107.241 Y79.788 E0.06398
G1 X107.341 Y79.838 E0.00669
G1 X107.526 Y79.934 E0.01248
G1 X107.66 Y80.008 E0.00916
G1 X108.108 Y80.268 E0.03101
G1 X108.224 Y80.338 E0.00811
G1 X108.682 Y80.63 E0.03252
G1 X108.803 Y80.711 E0.00872
G1 X109.264 Y81.035 E0.03373
G1 X109.372 Y81.115 E0.00805
G1 X109.796 Y81.44 E0.03198
G1 X109.912 Y81.533 E0.0089
G1 X110.33 Y81.885 E0.03272
G1 X110.429 Y81.972 E0.00789
G1 X110.826 Y82.335 E0.03221
G1 X110.937 Y82.441 E0.00919
G1 X111.336 Y82.842 E0.03387
G1 X111.43 Y82.941 E0.00817
G1 X111.782 Y83.326 E0.03123
G1 X111.88 Y83.437 E0.00886
G1 X112.246 Y83.876 E0.03422
G1 X112.325 Y83.976 E0.00763
G1 X112.648 Y84.396 E0.03172
G1 X112.739 Y84.519 E0.00916
G1 X113.058 Y84.977 E0.03342
G1 X113.128 Y85.082 E0.00756
G1 X113.329 Y85.396 E0.02232
G1 X113.419 Y85.546 E0.01047
G1 X113.929 Y86.446 E0.06193
G1 X113.981 Y86.541 E0.00648
G1 X114.082 Y86.734 E0.01304
G1 X114.149 Y86.87 E0.00908
G1 X114.375 Y87.356 E0.03209
G1 X114.43 Y87.482 E0.00823
G1 X114.638 Y87.984 E0.03253
G1 X114.691 Y88.12 E0.00874
G1 X114.877 Y88.633 E0.03267
G1 X114.922 Y88.767 E0.00846
G1 X115.083 Y89.28 E0.03219
G1 X115.123 Y89.415 E0.00843
G1 X115.271 Y89.97 E0.03439
G1 X115.303 Y90.101 E0.00807
G1 X115.419 Y90.622 E0.03196
G1 X115.448 Y90.772 E0.00915
G1 X115.541 Y91.308 E0.03257
G1 X115.562 Y91.446 E0.00836
G1 X115.631 Y91.979 E0.03218
G1 X115.646 Y92.114 E0.00813
G1 X115.694 Y92.666 E0.03317
G1 X115.703 Y92.814 E0.00888
G1 X115.718 Y93.178 E0.02181
G1 X115.721 Y93.263 E0.00509
G1 X115.731 Y93.944 E0.04077
G1 X115.731 Y93.991 E0.00281
G1 X115.74 Y118.013 E1.43816
G1 X115.74 Y118.059 E0.00275
G1 X115.73 Y118.783 E0.04335
G1 X115.683 Y119.289 E0.03042
G1 X115.557 Y119.782 E0.03046
G1 X115.356 Y120.249 E0.03044
G1 X115.084 Y120.679 E0.03046
G1 X114.748 Y121.062 E0.0305
G1 X114.357 Y121.386 E0.0304
G1 X113.919 Y121.646 E0.03049
G1 X113.446 Y121.834 E0.03047
G1 X112.95 Y121.945 E0.03043
G1 X112.611 Y121.976 E0.02038
G1 X112.291 Y121.988 E0.01917
G1 X112.17 Y121.99 E0.00725
G1 X88.165 Y121.99 E1.43714
G1 X87.467 Y121.981 E0.04179
G1 X86.961 Y121.934 E0.03042
G1 X86.468 Y121.809 E0.03045
G1 X86 Y121.608 E0.03049
G1 X85.57 Y121.337 E0.03043
G1 X85.188 Y121.001 E0.03046
G1 X84.862 Y120.61 E0.03048
G1 X84.602 Y120.173 E0.03044
G1 X84.414 Y119.7 E0.03047
G1 X84.302 Y119.204 E0.03044
G1 X84.27 Y118.829 E0.02253
G1 X84.261 Y118.496 E0.01994
G1 X84.26 Y118.408 E0.00527
G1 X84.263 Y94.126 E1.45372
G1 X84.263 Y94.08 E0.00275
G1 X84.275 Y93.23 E0.05089
G1 X84.281 Y93.076 E0.00923
G1 X84.317 Y92.494 E0.03491
G1 X84.329 Y92.354 E0.00841
G1 X84.383 Y91.842 E0.03082
G1 X84.402 Y91.693 E0.00899
G1 X84.488 Y91.13 E0.0341
G1 X84.511 Y91.001 E0.00784
G1 X84.616 Y90.461 E0.03293
G1 X84.647 Y90.316 E0.00888
G1 X84.732 Y89.965 E0.02162
G1 X84.775 Y89.806 E0.00986
G1 X85.092 Y88.738 E0.0667
G1 X85.162 Y88.528 E0.01325
G1 X85.397 Y87.898 E0.04026
G1 X85.466 Y87.729 E0.01093
G1 X85.701 Y87.193 E0.03504
G1 X85.754 Y87.077 E0.00764
G1 X85.987 Y86.598 E0.03189
G1 X86.054 Y86.468 E0.00876
G1 X86.31 Y85.997 E0.03209
G1 X86.382 Y85.871 E0.00869
G1 X86.657 Y85.415 E0.03188
G1 X86.73 Y85.301 E0.0081
G1 X86.937 Y84.988 E0.02247
G1 X87.034 Y84.848 E0.0102
G1 X87.699 Y83.949 E0.06695
G1 X87.84 Y83.772 E0.01355
G1 X88.297 Y83.237 E0.04212
G1 X88.417 Y83.105 E0.01068
G1 F1500 E-6.5
;MESH:SampleModel.STL
G0 F1800 X93.182 Y82.49
G0 X93.933 Y83.677
G0 X101.082 Y82.502
;TYPE:WALL-INNER
G1 F1500 E6.5
G1 F900 X101.572 Y82.56 E0.02954
G1 X102.067 Y82.641 E0.03003
G1 X102.535 Y82.737 E0.0286
G1 X103.006 Y82.858 E0.02911
G1 X103.506 Y83.008 E0.03125
G1 X103.941 Y83.16 E0.02759
G1 X104.405 Y83.346 E0.02993
G1 X104.877 Y83.558 E0.03098
G1 X105.306 Y83.774 E0.02876
G1 X105.736 Y84.013 E0.02945
G1 X106.157 Y84.274 E0.02966
G1 X106.561 Y84.55 E0.02929
G1 X106.934 Y84.828 E0.02785
G1 X107.356 Y85.173 E0.03263
G1 X107.701 Y85.48 E0.02765
G1 X108.054 Y85.824 E0.02951
G1 X108.391 Y86.183 E0.02948
G1 X108.707 Y86.55 E0.02899
G1 X109.032 Y86.961 E0.03137
G1 X109.319 Y87.36 E0.02943
G1 X109.572 Y87.746 E0.02763
G1 X109.84 Y88.197 E0.03141
G1 X110.077 Y88.635 E0.02981
G1 X110.28 Y89.056 E0.02798
G1 X110.47 Y89.501 E0.02897
G1 X110.649 Y89.972 E0.03017
G1 X110.81 Y90.46 E0.03076
G1 X110.943 Y90.933 E0.02942
G1 X111.046 Y91.374 E0.02711
G1 X111.146 Y91.899 E0.032
G1 X111.211 Y92.345 E0.02698
G1 X111.264 Y92.877 E0.03201
G1 X111.291 Y93.345 E0.02806
G1 X111.3 Y117.31 E1.43474
G1 X111.3 Y117.55 E0.01437
G1 X111.06 Y117.55 E0.00929
G1 X88.94 Y117.55 E1.32429
G1 X88.7 Y117.55 E0.01437
G1 X88.7 Y117.31 E0.00929
G1 X88.703 Y93.436 E1.42929
G1 X88.724 Y92.99 E0.02673
G1 X88.769 Y92.5 E0.02946
G1 X88.84 Y91.979 E0.03148
G1 X88.925 Y91.503 E0.02895
G1 X89.03 Y91.033 E0.02883
G1 X89.156 Y90.569 E0.02878
G1 X89.323 Y90.049 E0.0327
G1 X89.476 Y89.636 E0.02637
G1 X89.683 Y89.142 E0.03207
G1 X89.893 Y88.696 E0.02951
G1 X90.128 Y88.249 E0.03023
G1 X90.35 Y87.869 E0.02635
G1 X90.615 Y87.455 E0.02943
G1 X90.912 Y87.035 E0.0308
G1 X91.228 Y86.626 E0.03094
G1 X91.531 Y86.268 E0.02808
G1 X91.851 Y85.922 E0.02822
G1 X92.239 Y85.538 E0.03268
G1 X92.578 Y85.229 E0.02746
G1 X92.952 Y84.918 E0.02912
G1 X93.37 Y84.6 E0.03144
G1 X93.755 Y84.333 E0.02805
G1 X94.167 Y84.074 E0.02913
G1 X94.597 Y83.828 E0.02966
G1 X95.05 Y83.592 E0.03058
G1 X95.503 Y83.384 E0.02984
G1 X95.927 Y83.21 E0.02744
G1 X96.437 Y83.027 E0.03244
G1 X96.88 Y82.889 E0.02778
G1 X97.35 Y82.766 E0.02909
G1 X97.832 Y82.662 E0.02952
G1 X98.334 Y82.574 E0.03051
G1 X98.831 Y82.511 E0.02999
G1 X99.282 Y82.474 E0.02709
G1 X99.808 Y82.453 E0.03152
G1 X100.593 Y82.466 E0.047
G1 X101.082 Y82.502 E0.02935
G0 F1800 X101.129 Y82.024
G1 F900 X101.635 Y82.084 E0.03051
G1 X102.147 Y82.167 E0.03105
G1 X102.645 Y82.27 E0.03045
G1 X103.144 Y82.398 E0.03084
G1 X103.644 Y82.548 E0.03125
G1 X104.119 Y82.714 E0.03012
G1 X104.594 Y82.904 E0.03063
G1 X105.074 Y83.12 E0.03151
G1 X105.532 Y83.35 E0.03068
G1 X105.982 Y83.601 E0.03085
G1 X106.41 Y83.866 E0.03014
G1 X106.832 Y84.154 E0.03059
G1 X107.238 Y84.456 E0.03029
G1 X107.66 Y84.801 E0.03263
G1 X108.036 Y85.136 E0.03015
G1 X108.404 Y85.495 E0.03078
G1 X108.741 Y85.854 E0.02948
G1 X109.084 Y86.252 E0.03146
G1 X109.409 Y86.663 E0.03137
G1 X109.709 Y87.08 E0.03075
G1 X109.985 Y87.501 E0.03014
G1 X110.253 Y87.952 E0.03141
G1 X110.499 Y88.406 E0.03091
G1 X110.722 Y88.868 E0.03071
G1 X110.919 Y89.33 E0.03007
G1 X111.098 Y89.801 E0.03017
G1 X111.266 Y90.309 E0.03203
G1 X111.405 Y90.803 E0.03072
G1 X111.518 Y91.284 E0.02958
G1 X111.618 Y91.809 E0.032
G1 X111.689 Y92.297 E0.02952
G1 X111.742 Y92.829 E0.03201
G1 X111.771 Y93.335 E0.03034
G1 X111.78 Y117.79 E1.46408
G1 X111.78 Y118.03 E0.01437
G1 X111.54 Y118.03 E0.00929
G1 X88.46 Y118.03 E1.38176
G1 X88.22 Y118.03 E0.01437
G1 X88.22 Y117.79 E0.00929
G1 X88.223 Y93.436 E1.45803
G1 X88.246 Y92.946 E0.02937
G1 X88.293 Y92.435 E0.03072
G1 X88.367 Y91.895 E0.03263
G1 X88.452 Y91.419 E0.02895
G1 X88.567 Y90.907 E0.03142
G1 X88.699 Y90.422 E0.03009
G1 X88.866 Y89.902 E0.0327
G1 X89.033 Y89.45 E0.02885
G1 X89.24 Y88.956 E0.03207
G1 X89.459 Y88.491 E0.03077
G1 X89.703 Y88.026 E0.03144
G1 X89.946 Y87.61 E0.02884
G1 X90.223 Y87.178 E0.03072
G1 X90.52 Y86.758 E0.0308
G1 X90.848 Y86.333 E0.03214
G1 X91.179 Y85.942 E0.03067
G1 X91.513 Y85.581 E0.02944
G1 X91.901 Y85.197 E0.03268
G1 X92.264 Y84.866 E0.02941
G1 X92.661 Y84.536 E0.03091
G1 X93.079 Y84.218 E0.03144
G1 X93.491 Y83.932 E0.03003
G1 X93.923 Y83.66 E0.03056
G1 X94.375 Y83.402 E0.03116
G1 X94.834 Y83.163 E0.03098
G1 X95.306 Y82.946 E0.0311
G1 X95.765 Y82.758 E0.0297
G1 X96.275 Y82.575 E0.03244
G1 X96.747 Y82.428 E0.0296
G1 X97.243 Y82.298 E0.0307
G1 X97.746 Y82.189 E0.03081
G1 X98.255 Y82.1 E0.03094
G1 X98.774 Y82.034 E0.03132
G1 X99.263 Y81.994 E0.02937
G1 X99.797 Y81.973 E0.03199
G1 X100.62 Y81.986 E0.04928
G1 X101.129 Y82.024 E0.03056
G0 F1800 X101.12 Y82.123
G0 X94.877 Y83.252
G0 X94.618 Y82.734
;TYPE:WALL-OUTER
G1 F900 X95.105 Y82.51 E0.03209
G1 X95.599 Y82.307 E0.03197
G1 X96.113 Y82.123 E0.03268
G1 X96.614 Y81.967 E0.03141
G1 X97.131 Y81.831 E0.032
G1 X97.664 Y81.716 E0.03264
G1 X98.18 Y81.626 E0.03136
G1 X98.717 Y81.557 E0.03241
G1 X99.244 Y81.514 E0.03166
G1 X99.785 Y81.493 E0.03241
G1 X100.647 Y81.506 E0.05161
G1 X101.174 Y81.546 E0.03164
G1 X101.7 Y81.608 E0.03171
G1 X102.232 Y81.694 E0.03226
G1 X102.751 Y81.802 E0.03174
G1 X103.279 Y81.937 E0.03263
G1 X103.782 Y82.088 E0.03144
G1 X104.297 Y82.268 E0.03266
G1 X104.783 Y82.462 E0.03133
G1 X105.271 Y82.682 E0.03205
G1 X105.758 Y82.926 E0.03261
G1 X106.216 Y83.182 E0.03141
G1 X106.68 Y83.469 E0.03266
G1 X107.113 Y83.764 E0.03137
G1 X107.542 Y84.084 E0.03204
G1 X107.964 Y84.429 E0.03263
G1 X108.363 Y84.785 E0.03201
G1 X108.739 Y85.151 E0.03141
G1 X109.105 Y85.541 E0.03202
G1 X109.461 Y85.954 E0.03264
G1 X109.786 Y86.365 E0.03137
G1 X110.099 Y86.8 E0.03208
G1 X110.398 Y87.256 E0.03265
G1 X110.666 Y87.707 E0.03141
G1 X110.921 Y88.177 E0.03201
G1 X111.154 Y88.659 E0.03205
G1 X111.368 Y89.16 E0.03262
G1 X111.554 Y89.65 E0.03138
G1 X111.722 Y90.158 E0.03203
G1 X111.867 Y90.673 E0.03203
G1 X111.99 Y91.194 E0.03205
G1 X112.09 Y91.719 E0.032
G1 X112.167 Y92.249 E0.03206
G1 X112.22 Y92.781 E0.03201
G1 X112.251 Y93.326 E0.03268
G1 X112.26 Y118.27 E1.49335
G1 X112.26 Y118.51 E0.01437
G1 X112.02 Y118.51 E0.00929
G1 X87.98 Y118.51 E1.43923
G1 X87.74 Y118.51 E0.01437
G1 X87.74 Y118.27 E0.00929
G1 X87.743 Y93.436 E1.48677
G1 X87.768 Y92.902 E0.032
G1 X87.817 Y92.37 E0.03198
G1 X87.891 Y91.83 E0.03263
G1 X87.984 Y91.313 E0.03145
G1 X88.104 Y90.781 E0.03265
G1 X88.242 Y90.275 E0.0314
G1 X88.409 Y89.755 E0.0327
G1 X88.59 Y89.264 E0.03133
G1 X88.797 Y88.77 E0.03207
G1 X89.025 Y88.286 E0.03203
G1 X89.278 Y87.803 E0.03264
G1 X89.542 Y87.351 E0.03134
G1 X89.831 Y86.901 E0.03202
G1 X90.14 Y86.464 E0.03204
